web/public/images/react-conf-logo--dark.svg

<svg fill="none" height="98" viewBox="0 0 311 98" width="311" xmlns="http://www.w3.org/2000/svg" xmlns:xlink="http://www.w3.org/1999/xlink"><clipPath id="a"><path d="m0 0h310.333v98h-310.333z"/></clipPath><mask id="b" height="97" maskUnits="userSpaceOnUse" width="311" x="0" y="0"><path d="m310.333 0h-310.333v96.5766h310.333z" fill="#fff"/></mask><g clip-path="url(#a)"><g mask="url(#b)"><path d="m49.313 34.9731c-5.1954 0-9.3814 4.2157-9.3814 9.3816 0 5.1657 4.2157 9.3816 9.3814 9.3816 5.1659 0 9.3816-4.2159 9.3816-9.3816 0-5.1659-4.2157-9.3816-9.3816-9.3816z" fill="#58c4dc"/><path d="m98.625 44.355c0-7.4221-6.8581-13.9238-17.8131-18.199.1486-.95.2673-1.9297.386-2.8501 1.0687-10.6582-1.4844-18.34745-7.2142-21.64287-6.4127-3.71105-15.4976-1.009401-24.6415 6.32365-9.2033-7.333051-18.2585-10.0347-24.7008-6.32365-5.7298 3.32512-8.3127 11.01437-7.2143 21.64287.0891.9501.2078 1.9001.386 2.8501-.9204.3563-1.811.7125-2.672 1.0986-9.76749 4.3937-15.1411 10.48-15.1411 17.1004 0 6.6205 6.85804 13.9239 17.8131 18.1989-.1485.9501-.2672 1.9298-.386 2.8502-1.0688 10.6583 1.4845 18.3475 7.2143 21.643 1.9594 1.1281 4.2158 1.6922 6.472 1.6625 5.433 0 11.7864-2.8502 18.1694-7.9862 6.3831 5.1063 12.7362 7.9862 18.1989 7.9862 2.2565.0297 4.5129-.5344 6.4721-1.6625 5.73-3.3252 8.3128-11.0146 7.2144-21.643-.089-.9501-.2376-1.9001-.386-2.8502 10.9254-4.275 17.8132-10.7767 17.8132-18.1989m-31.1434-39.66374c1.4548-.0297 2.9095.32656 4.1863 1.0094 3.9782 2.28602 5.7594 8.55024 4.8986 17.10054-.0593.5938-.1189 1.1875-.208 1.7813-4.5423-1.3656-9.2033-2.3454-13.9239-2.9094-2.8499-3.8002-6.0267-7.3331-9.5002-10.5988 5.433-4.21579 10.5393-6.38304 14.5472-6.38304zm-1.8701 49.04534c-1.7518 3.0579-3.6816 6.0268-5.73 8.8769-3.5033.3561-7.0065.5344-10.5394.5344-3.5032 0-7.0361-.1783-10.5393-.5344-2.0485-2.8501-3.9783-5.819-5.73-8.8769-1.7515-3.0578-3.3546-6.1753-4.7797-9.3816 1.4251-3.2065 3.0282-6.3533 4.7797-9.3815 1.7517-3.0282 3.6518-5.9971 5.7003-8.8472 3.5032-.3562 7.0361-.5641 10.5393-.5641 3.5033 0 7.0362.1782 10.5394.5344 2.0485 2.8501 3.9783 5.819 5.73 8.8472 1.7515 3.0579 3.3546 6.1751 4.7797 9.3816-1.4251 3.2062-3.0282 6.3534-4.7797 9.3816m7.1845-3.4736c1.0984 2.9985 2.0188 6.0861 2.7015 9.233-3.0578.95-6.1751 1.6924-9.322 2.2564 1.1875-1.8111 2.3452-3.6815 3.4736-5.641 1.0984-1.9295 2.1375-3.8593 3.1172-5.8187m-23.4538 24.3149c-2.3455-2.1675-4.572-4.483-6.6205-6.9471 2.1672.1187 4.364.2077 6.6205.2077 2.2561 0 4.4533-.089 6.6204-.2077-2.0485 2.4641-4.275 4.7796-6.6204 6.9471zm-16.8334-12.8848c-3.1469-.5344-6.2643-1.2768-9.3222-2.2268.7125-3.1172 1.6032-6.2048 2.7017-9.2033.9797 1.9594 1.9891 3.8892 3.1172 5.8187 1.1281 1.9298 2.2862 3.8299 3.4736 5.641m-6.6205-23.3055c-1.0985-2.9985-1.9892-6.0564-2.7017-9.1736 3.0579-.95 6.1456-1.6924 9.2925-2.2564-1.1874 1.8111-2.3455 3.6516-3.4735 5.611-1.1281 1.9595-2.1376 3.8596-3.1173 5.819zm23.4539-24.3148c2.3455 2.1672 4.572 4.483 6.6204 6.9471-2.1671-.1188-4.3642-.2078-6.6204-.2078-2.2268 0-4.4533.0593-6.6204.2078 2.0484-2.4641 4.2453-4.7799 6.6204-6.9471zm20.3366 18.4958c-1.1283-1.9594-2.2861-3.8296-3.5032-5.6407 3.1469.5344 6.2641 1.3064 9.322 2.2564-.7124 3.1173-1.6031 6.2048-2.7016 9.2033-.9797-1.9594-2.0188-3.8892-3.1172-5.819zm-47.5313-9.7674c-.8906-8.58.9204-14.81453 4.8986-17.10054 1.2767-.71254 2.7315-1.0688 4.186-1.00943 4.0082 0 9.1145 2.19697 14.5475 6.38307-3.4735 3.2657-6.6504 6.7986-9.5003 10.5987-4.7206.5641-9.3816 1.5438-13.924 2.9095-.089-.5938-.1484-1.1875-.2078-1.7813zm-17.33803 21.5241c0-4.6016 4.51265-9.2629 12.38013-12.7958.5343-.2373 1.0687-.475 1.6328-.6827 1.0985 4.6313 2.5829 9.144 4.4236 13.5082-1.8704 4.3643-3.3548 8.9066-4.4533 13.5379-8.8768-3.6219-14.0129-8.6689-14.0129-13.5379m22.296 38.6248c-3.9783-2.2861-5.7892-8.5505-4.8986-17.1007.0594-.5937.1188-1.1578.2078-1.7812 4.5424 1.3655 9.2034 2.3452 13.924 2.9093 2.8499 3.8002 6.0267 7.3628 9.5003 10.5989-7.5705 5.8485-14.5176 7.7783-18.7038 5.3438m49.5204-17.1005c.8608 8.5799-.9203 14.8146-4.8986 17.1005-4.2159 2.4345-11.1333.5047-18.7038-5.3438 3.4735-3.2658 6.6503-6.7987 9.5002-10.5989 4.7206-.5641 9.3816-1.5438 13.9239-2.9093.0891.5938.1487 1.1875.208 1.7812m3.414-8.0159c-1.0985-4.6313-2.5829-9.1439-4.4531-13.5082 1.8702-4.3642 3.3546-8.9065 4.4531-13.5379 8.8472 3.622 14.0131 8.669 14.0131 13.5379 0 4.869-5.1363 9.8863-14.0131 13.5379" fill="#58c4dc"/><path clip-rule="evenodd" d="m266.394 18.3765-.015-.0092 3.103-8.60039c-1.001-.48866-1.467-.93625-1.875-1.32934-1.106-1.06379-1.797-1.72859-11.574-1.72859-13.389 0-21.91 7.80812-21.91 21.43502 0 13.6272 8.58 21.1086 21.583 21.1086 4.75 0 10.154-1.158 13.331-2.9095l-2.138-9.1739c-.514.3395-.95.6585-1.354.9547-2.003 1.4665-3.238 2.3705-9.363 2.3705-7.363 0-11.638-4.958-11.638-12.6175 0-7.6597 4.572-12.4098 11.578-12.4098 3.646 0 7.202 1.0947 10.257 2.9002l-.014.0389zm-142.802 29.8969h-10.331v-40.61384h16.299c10.777 0 16.447 5.01734 16.447 12.85514s-2.85 9.619-8.312 11.6971l10.391 16.0616h-11.638l-8.135-13.6568-4.75.386v13.2412zm5.018-21.0493c4.423-.3264 6.828-2.1374 6.828-6.0563s-2.464-5.3142-7.659-5.3142h-4.365v11.4895zm27.61 21.0493v-40.61384h29.688v8.31274h-19.564v7.8081h15.734v8.2534h-15.734v7.9268h19.564v8.3128zm65.729 0h10.272l-14.161-40.61384h-12.944l-14.429 40.61384h10.272l2.91-8.6395h15.082zm-15.854-16.7147 5.404-15.913 5.195 15.913zm91.293 16.7147v-31.9745h12.915v-8.63934h-36.19v8.63934h12.944v31.9745zm-165.037 17.6346c-2.435-1.5737-4.661-2.3455-7.541-2.3455-5.997 0-10.005 4.1563-10.005 10.9847 0 6.8285 4.067 11.1925 10.094 11.1925 4.887 0 5.714-.7808 6.881-1.8835.272-.2573.562-.5317.927-.8181l.624 3.7406c-2.257 1.4251-5.433 2.2862-8.521 2.2862-8.075 0-13.805-5.6111-13.805-14.3693 0-8.7579 5.789-14.5176 13.805-14.5176 6.116 0 6.667.5186 7.587 1.384.285.2689.607.5714 1.141.9021l-1.187 3.3843zm3.739 8.8178c0 8.7286 5.76 14.3693 13.835 14.3693 8.105 0 13.835-5.819 13.835-14.5473 0-8.7285-5.73-14.3396-13.835-14.3396s-13.835 5.7891-13.835 14.5176zm3.77-.178c0-6.6207 4.097-10.9847 9.976-10.9847 6.026 0 10.183 4.572 10.183 11.1627 0 6.5908-3.949 11.0144-10.005 11.0144-6.057 0-10.154-4.572-10.154-11.1924zm45.336-13.6571h3.652v27.8181h-4.067l-14.785-22.5038v22.2367h-3.652v-27.551h4.156l14.696 22.2367zm28.59 0h-17.011v.0297 27.551h3.741v-11.6084h10.985v-3.4735h-10.985v-8.9659h13.27zm7.482 27.551v-3.1172c.986-.7344 1.957-1.4387 2.893-2.1176 4.93-3.5745 8.893-6.4481 8.893-9.3421 0-3.4439-1.543-3.4736-4.186-3.4736-2.642 0-4.186.9798-6.264 2.5235l-1.276-3.0875c2.078-1.6331 4.661-2.8205 7.926-2.8205 3.266 0 7.63 2.5532 7.63 6.4424s-4.364 7.4518-10.094 11.6081h11.074v3.4439h-16.596zm19.95-10.4214c0 6.5611 4.364 11.0737 10.629 11.0737 6.264 0 10.687-4.5126 10.687-11.0737 0-6.5614-4.423-11.074-10.687-11.074-6.265 0-10.629 4.5126-10.629 11.074zm3.622 0c0-4.4237 2.82-7.6302 7.007-7.6302 4.186 0 7.065 3.2065 7.065 7.6302 0 4.4233-2.879 7.6298-7.065 7.6298-4.187 0-7.007-3.2065-7.007-7.6298zm21.02 10.4214v-3.1172c.986-.7347 1.957-1.4389 2.894-2.1179 4.929-3.5745 8.893-6.4478 8.893-9.3418 0-3.4439-1.544-3.4736-4.187-3.4736-2.642 0-4.186.9798-6.264 2.5235l-1.277-3.0875c2.079-1.6331 4.661-2.8205 7.928-2.8205 3.266 0 7.63 2.5532 7.63 6.4424s-4.364 7.4518-10.095 11.6081h11.075v3.4439h-16.597zm37.169 8.1049v-8.5502h4.276l-.119-3.4439h-4.184v-17.6348h-3.207l-14.251 18.9709.357 2.1078h13.597v8.5502zm-12.408-11.9941 8.877-11.9941v11.9941z" fill="#f5f4f3" fill-rule="evenodd"/></g></g></svg>

<svg width="311" height="98" viewBox="0 0 311 98" fill="none" xmlns="http://www.w3.org/2000/svg">
<g clip-path="url(#clip0_358_2411)">
<mask id="mask0_358_2411" style="mask-type:luminance" maskUnits="userSpaceOnUse" x="0" y="0" width="311" height="97">
<path d="M310.333 0H0V96.5766H310.333V0Z" fill="white"/>
</mask>
<g mask="url(#mask0_358_2411)">
<path d="M49.313 34.9731C44.1176 34.9731 39.9316 39.1888 39.9316 44.3547C39.9316 49.5204 44.1473 53.7363 49.313 53.7363C54.4789 53.7363 58.6946 49.5204 58.6946 44.3547C58.6946 39.1888 54.4789 34.9731 49.313 34.9731Z" fill="#58C4DC"/>
<path d="M98.625 44.355C98.625 36.9329 91.7669 30.4312 80.8119 26.156C80.9605 25.206 81.0792 24.2263 81.1979 23.3059C82.2666 12.6477 79.7135 4.95845 73.9837 1.66303C67.571 -2.04802 58.4861 0.653629 49.3422 7.98668C40.1389 0.653629 31.0837 -2.04802 24.6414 1.66303C18.9116 4.98815 16.3287 12.6774 17.4271 23.3059C17.5162 24.256 17.6349 25.206 17.8131 26.156C16.8927 26.5123 16.0021 26.8685 15.1411 27.2546C5.37361 31.6483 0 37.7346 0 44.355C0 50.9755 6.85804 58.2789 17.8131 62.5539C17.6646 63.504 17.5459 64.4837 17.4271 65.4041C16.3583 76.0624 18.9116 83.7516 24.6414 87.0471C26.6008 88.1752 28.8572 88.7393 31.1134 88.7096C36.5464 88.7096 42.8998 85.8594 49.2828 80.7234C55.6659 85.8297 62.019 88.7096 67.4817 88.7096C69.7382 88.7393 71.9946 88.1752 73.9538 87.0471C79.6838 83.7219 82.2666 76.0325 81.1682 65.4041C81.0792 64.454 80.9306 63.504 80.7822 62.5539C91.7076 58.2789 98.5954 51.7772 98.5954 44.355M67.452 4.69126C68.9068 4.66156 70.3615 5.01782 71.6383 5.70066C75.6165 7.98668 77.3977 14.2509 76.5369 22.8012C76.4776 23.395 76.418 23.9887 76.3289 24.5825C71.7866 23.2169 67.1256 22.2371 62.405 21.6731C59.5551 17.8729 56.3783 14.34 52.9048 11.0743C58.3378 6.85851 63.4441 4.69126 67.452 4.69126ZM65.5819 53.7366C63.8301 56.7945 61.9003 59.7634 59.8519 62.6135C56.3486 62.9696 52.8454 63.1479 49.3125 63.1479C45.8093 63.1479 42.2764 62.9696 38.7732 62.6135C36.7247 59.7634 34.7949 56.7945 33.0432 53.7366C31.2917 50.6788 29.6886 47.5613 28.2635 44.355C29.6886 41.1485 31.2917 38.0017 33.0432 34.9735C34.7949 31.9453 36.695 28.9764 38.7435 26.1263C42.2467 25.7701 45.7796 25.5622 49.2828 25.5622C52.7861 25.5622 56.319 25.7404 59.8222 26.0966C61.8707 28.9467 63.8005 31.9156 65.5522 34.9438C67.3037 38.0017 68.9068 41.1189 70.3319 44.3254C68.9068 47.5316 67.3037 50.6788 65.5522 53.707M72.7367 50.2334C73.8351 53.2319 74.7555 56.3195 75.4382 59.4664C72.3804 60.4164 69.2631 61.1588 66.1162 61.7228C67.3037 59.9117 68.4614 58.0413 69.5898 56.0818C70.6882 54.1523 71.7273 52.2225 72.707 50.2631M49.2532 74.578C46.9077 72.4105 44.6812 70.095 42.6327 67.6309C44.7999 67.7496 46.9967 67.8386 49.2532 67.8386C51.5093 67.8386 53.7065 67.7496 55.8736 67.6309C53.8251 70.095 51.5986 72.4105 49.2532 74.578ZM32.4198 61.6932C29.2729 61.1588 26.1555 60.4164 23.0976 59.4664C23.8101 56.3492 24.7008 53.2616 25.7993 50.2631C26.779 52.2225 27.7884 54.1523 28.9165 56.0818C30.0446 58.0116 31.2027 59.9117 32.3901 61.7228M25.7696 38.4173C24.6711 35.4188 23.7804 32.3609 23.0679 29.2437C26.1258 28.2937 29.2135 27.5513 32.3604 26.9873C31.173 28.7984 30.0149 30.6389 28.8869 32.5983C27.7588 34.5578 26.7493 36.4579 25.7696 38.4173ZM49.2235 14.1025C51.569 16.2697 53.7955 18.5855 55.8439 21.0496C53.6768 20.9308 51.4797 20.8418 49.2235 20.8418C46.9967 20.8418 44.7702 20.9011 42.6031 21.0496C44.6515 18.5855 46.8484 16.2697 49.2235 14.1025ZM69.5601 32.5983C68.4318 30.6389 67.274 28.7687 66.0569 26.9576C69.2038 27.492 72.321 28.264 75.3789 29.214C74.6665 32.3313 73.7758 35.4188 72.6773 38.4173C71.6976 36.4579 70.6585 34.5281 69.5601 32.5983ZM22.0288 22.8309C21.1382 14.2509 22.9492 8.01637 26.9274 5.73036C28.2041 5.01782 29.6589 4.66156 31.1134 4.72093C35.1216 4.72093 40.2279 6.9179 45.6609 11.104C42.1874 14.3697 39.0105 17.9026 36.1606 21.7027C31.44 22.2668 26.779 23.2465 22.2366 24.6122C22.1476 24.0184 22.0882 23.4247 22.0288 22.8309ZM4.69077 44.355C4.69077 39.7534 9.20342 35.0921 17.0709 31.5592C17.6052 31.3219 18.1396 31.0842 18.7037 30.8765C19.8022 35.5078 21.2866 40.0205 23.1273 44.3847C21.2569 48.749 19.7725 53.2913 18.674 57.9226C9.7972 54.3007 4.6611 49.2537 4.6611 44.3847M26.9571 83.0095C22.9788 80.7234 21.1679 74.459 22.0585 65.9088C22.1179 65.3151 22.1773 64.751 22.2663 64.1276C26.8087 65.4931 31.4697 66.4728 36.1903 67.0369C39.0402 70.8371 42.217 74.3997 45.6906 77.6358C38.1201 83.4843 31.173 85.4141 26.9868 82.9796M76.5072 65.8791C77.368 74.459 75.5869 80.6937 71.6086 82.9796C67.3927 85.4141 60.4753 83.4843 52.9048 77.6358C56.3783 74.37 59.5551 70.8371 62.405 67.0369C67.1256 66.4728 71.7866 65.4931 76.3289 64.1276C76.418 64.7214 76.4776 65.3151 76.5369 65.9088M79.9509 57.8929C78.8524 53.2616 77.368 48.749 75.4978 44.3847C77.368 40.0205 78.8524 35.4782 79.9509 30.8468C88.7981 34.4688 93.964 39.5158 93.964 44.3847C93.964 49.2537 88.8277 54.271 79.9509 57.9226" fill="#58C4DC"/>
<path fill-rule="evenodd" clip-rule="evenodd" d="M266.394 18.3765L266.379 18.3673L269.482 9.76691C268.481 9.27825 268.015 8.83066 267.607 8.43757C266.501 7.37378 265.81 6.70898 256.033 6.70898C242.644 6.70898 234.123 14.5171 234.123 28.144C234.123 41.7712 242.703 49.2526 255.706 49.2526C260.456 49.2526 265.86 48.0946 269.037 46.3431L266.899 37.1692C266.385 37.5087 265.949 37.8277 265.545 38.1239C263.542 39.5904 262.307 40.4944 256.182 40.4944C248.819 40.4944 244.544 35.5364 244.544 27.8769C244.544 20.2172 249.116 15.4671 256.122 15.4671C259.768 15.4671 263.324 16.5618 266.379 18.3673L266.365 18.4062L266.394 18.3765ZM123.592 48.2734H113.261V7.65956H129.56C140.337 7.65956 146.007 12.6769 146.007 20.5147C146.007 28.3525 143.157 30.1337 137.695 32.2118L148.086 48.2734H136.448L128.313 34.6166L123.563 35.0026V48.2438L123.592 48.2734ZM128.61 27.2241C133.033 26.8977 135.438 25.0867 135.438 21.1678C135.438 17.2489 132.974 15.8536 127.779 15.8536H123.414V27.3431L128.61 27.2241ZM156.22 48.2734V7.65956H185.908V15.9723H166.344V23.7804H182.078V32.0338H166.344V39.9606H185.908V48.2734H156.22ZM221.949 48.2734H232.221L218.06 7.65956H205.116L190.687 48.2734H200.959L203.869 39.6339H218.951L221.949 48.2734ZM206.095 31.5587L211.499 15.6457L216.694 31.5587H206.095ZM297.388 48.2734V16.2989H310.303V7.65956H274.113V16.2989H287.057V48.2734H297.388ZM132.351 65.908C129.916 64.3343 127.69 63.5625 124.81 63.5625C118.813 63.5625 114.805 67.7188 114.805 74.5472C114.805 81.3757 118.872 85.7397 124.899 85.7397C129.786 85.7397 130.613 84.9589 131.78 83.8562C132.052 83.5989 132.342 83.3245 132.707 83.0381L133.331 86.7787C131.074 88.2038 127.898 89.0649 124.81 89.0649C116.735 89.0649 111.005 83.4538 111.005 74.6956C111.005 65.9377 116.794 60.178 124.81 60.178C130.926 60.178 131.477 60.6966 132.397 61.562C132.682 61.8309 133.004 62.1334 133.538 62.4641L132.351 65.8484V65.908ZM136.09 74.7258C136.09 83.4544 141.85 89.0951 149.925 89.0951C158.03 89.0951 163.76 83.2761 163.76 74.5478C163.76 65.8193 158.03 60.2082 149.925 60.2082C141.82 60.2082 136.09 65.9973 136.09 74.7258ZM139.86 74.5478C139.86 67.9271 143.957 63.5631 149.836 63.5631C155.862 63.5631 160.019 68.1351 160.019 74.7258C160.019 81.3166 156.07 85.7402 150.014 85.7402C143.957 85.7402 139.86 81.1682 139.86 74.5478ZM185.196 60.8907H188.848V88.7088H184.781L169.996 66.205V88.4417H166.344V60.8907H170.5L185.196 83.1274V60.8907ZM213.786 60.8907H196.775V60.9204V88.4714H200.516V76.863H211.501V73.3895H200.516V64.4236H213.786V60.8907ZM221.268 88.4417V85.3245C222.254 84.5901 223.225 83.8858 224.161 83.2069C229.091 79.6324 233.054 76.7588 233.054 73.8648C233.054 70.4209 231.511 70.3912 228.868 70.3912C226.226 70.3912 224.682 71.371 222.604 72.9147L221.328 69.8272C223.406 68.1941 225.989 67.0067 229.254 67.0067C232.52 67.0067 236.884 69.5599 236.884 73.4491C236.884 77.3383 232.52 80.9009 226.79 85.0572H237.864V88.5011H221.268V88.4417ZM241.218 78.0203C241.218 84.5814 245.582 89.094 251.847 89.094C258.111 89.094 262.534 84.5814 262.534 78.0203C262.534 71.4589 258.111 66.9463 251.847 66.9463C245.582 66.9463 241.218 71.4589 241.218 78.0203ZM244.84 78.0203C244.84 73.5966 247.66 70.3901 251.847 70.3901C256.033 70.3901 258.912 73.5966 258.912 78.0203C258.912 82.4436 256.033 85.6501 251.847 85.6501C247.66 85.6501 244.84 82.4436 244.84 78.0203ZM265.86 88.4417V85.3245C266.846 84.5898 267.817 83.8856 268.754 83.2066C273.683 79.6321 277.647 76.7588 277.647 73.8648C277.647 70.4209 276.103 70.3912 273.46 70.3912C270.818 70.3912 269.274 71.371 267.196 72.9147L265.919 69.8272C267.998 68.1941 270.58 67.0067 273.847 67.0067C277.113 67.0067 281.477 69.5599 281.477 73.4491C281.477 77.3383 277.113 80.9009 271.382 85.0572H282.457V88.5011H265.86V88.4417ZM303.029 96.5466V87.9964H307.305L307.186 84.5525H303.002V66.9177H299.795L285.544 85.8886L285.901 87.9964H299.498V96.5466H303.029ZM290.621 84.5525L299.498 72.5584V84.5525H290.621Z" fill="#F5F4F3"/>
</g>
</g>
<defs>
<clipPath id="clip0_358_2411">
<rect width="310.333" height="98" fill="white"/>
</clipPath>
</defs>
</svg>
